!!!OTL: Der Morgenstern
!!!ARE: Europa, Mitteleuropa, Deutschland
!!!SCT: A0645
!!!YEM: Copyright 1995, estate of Helmut Schaffrath.
**kern
*ICvox
*Ivox
!! Mixed meters:  4/2; 6/2
*M4/2
*k[b-]
*F:
{1f
=1
1cc
1a
=2
1f
1cc
=3
2dd
2dd
1cc
=4
2r
2cc
2dd
2ee
=5
2ff
2ee
2dd
2dd
=6
1cc
2r}
{2a
=7
*M6/2
1dd
2cc
1b-
2a
=8
*M4/2
1g
1f}
=9
{1f
=10
1cc
1a
=11
1f
1cc
=12
2dd
2dd
1cc
=13
2r
2cc
2dd
2ee
=14
2ff
2ee
2dd
2dd
=15
1cc
2r}
{2a
=16
*M6/2
1dd
2cc
1b-
2a
=17
1g
1f
1r}
=18
*M4/2
{1cc
1a
=19
1cc
1a
=20
2a
2a
2g
2g
=21
2a
2a
2g
2g
=22
2a
2a
1g
=23
1f}
{1ff
=24
1cc
1dd
=25
1cc
2b-
2a
=26
1g
1f}
==
!!!AGN: Romanze, Ballade, Lied, religioeses Lied
!! Ph. Nicolai 1599
!!!ONB: ESAC (Essen Associative Code) Database: ALTDEU
!!!AMT: irregular
!!!AIN: vox
!!!EED: Helmut Schaffrath
!!!EEV: 1.0
*-
